!!!!SEGMENT: pl-sa--599-a-ix-79--002_anonim--krakowiak.krn
!!!cenid: 18xx:664
!!!COM: Anonim
!!!COM-rismID: pe30004985
!!!CDT:
!!!CNT:
!!!OTL: Krakowiak
!!!PDT:
!!!AGN: Secular; Krakowiak
!!!SMS-siglum: PL-SA
!!!SMS-shelfmark: 599/A IX 79
!!!SMS-shelfwork: 002 W
!!!SMS-variant:
!!!SMS-altvar:
!!!NIFC-rismSourceID: 1001065538
!!!NIFC-rismChildID: 1001065538
!!!NIFC-islandoraID: none
!!!URL-pdf-islandora:
!!!URL-scan: https://bc.bdsandomierz.pl/dlibra/publication/1407/edition/1375/content @EN{Scan in the Sandomierz Diocese Digital Library} @PL{Skany w portalu Cyfrowa Biblioteka Diecezjalna w Sandomierzu}
!!!IIIF:
!!!ONB-nifc: Str. 1, s. 3-5
!!!AIN: 2 piano
!!!key:
**kern	**kern
*part2	*part1
*staff2	*staff1
*Ipiano	*Ipiano
*I"Piano	*I"Piano
*clefF4	*clefG2
*k[]	*k[]
*C:	*C:
*M2/4	*M2/4
=1	=1
!LO:SIC:o:s:=:v:all\right	!LO:SIC:o:s:=:v:all\right
8C\L	8.ee\L
8g\ 8e\ 8c\	.
.	16ff\Jk
8g\ 8e\ 8c\	16gg\LL
.	16aa\
8g\J 8e\ 8c\	16gg\
.	16ff#X\JJ
=2	=2
*rep	*
8C\L	16gg\LL
.	16aa\
8g\ 8e\ 8c\	16gg\
.	16ff#X\JJ
8g\ 8e\ 8c\	8gg\L 8ee\
8g\J 8e\ 8c\	8gg\J 8ee\
*Xrep	*
=3	=3
8C\L	8ccc\L 8aa\
8e\J 8c\	8bb\ 8gg\
*rep	*
8C\L	8aa\ 8ff\
8e\J 8c\	8gg\J 8ee\
*Xrep	*
=4	=4
8G\L	16gg\LL 16ee\
.	16ff\JJ 16dd\
8g\ 8d\	4ff\ 4dd\
8g\ 8d\	.
8g\J 8d\	8r
=5	=5
8G\L	8.dd\L 8.b\
8g\J 8d\	.
.	16ee\Jk 16cc\
*rep	*
8G\L	16ff\LL 16dd\
.	16gg\ 16ee\
8g\J 8d\	16ff\ 16dd\
.	16ee\JJ 16cc\
*Xrep	*
!!LO:LB:g=original
=6	=6
*rep	*
8G\L	16ff\LL 16dd\
.	16gg\ 16ee\
8g\J 8d\	16ff\ 16dd\
.	16ee\JJ 16cc\
*Xrep	*
*rep	*
8G\L	8ff\L 8dd\
8g\J 8d\	8ff\J 8dd\
*Xrep	*
=7	=7
8G\L	8ff\L 8dd\
8g\ 8d\	8aa\ 8ff\
8g\ 8d\	8gg\ 8ee\
8g\J 8d\	8ff\J 8dd\
=8	=8
8C\L	16ff\LL 16dd\
.	16ee\JJ 16cc\
8e\ 8c\	4ee\ 4cc\
8e\ 8c\	.
8e\J 8c\	8r
=9||	=9||
8F\L	8.ccc\L 8.aa\
*clefG2	*
8a\ 8f\	.
.	16bb\Jk 16gg\
8a\ 8f\	16ddd\LL 16bb\
.	16ccc\ 16aa\
8a\J 8f\	16bb\ 16gg\
.	16aa\JJ 16ff\
=10	=10
8c/L	8gg\ 8ee\
8g/ 8e/	4ccc\
8c/	.
8g/J 8e/	8ee\ 8cc\
!!LO:LB:g=original
=11	=11
*clefF4	*
.	8qff#X/
8G\L	8gg\L
8g\ 8d\	16aa\L
.	16gg\JJ
!	!LO:SIC:s:=:v:16ffn lub 16ff# [skala góralska]
8g\ 8d\	16ff#\LL
.	16ee\
!	!LO:SIC:s:=:v:16ffn lub 16ff# [skala góralska]
8g\J 8d\	16ff#\
.	16dd\JJ
=12	=12
8C\L	16cc\LL
.	16ee\JJ
8e\ 8c\	4gg\ 4ee\
8e\ 8c\	.
8e\J 8c\	8ee\ 8cc\
=13	=13
8F\L	8.ccc\L
*clefG2	*
8a\ 8f\	.
.	16bb\Jk
8a\ 8f\	16ddd\LL
.	16ccc\
8a\J 8f\	16bb\
.	16aa\JJ
=14	=14
8c/L	8gg\
8g/ 8e/	4ccc\
8c/	.
8g/J 8e/	8ee\
*clefF4	*
=15	=15
!	!LO:TX:a:t=P:problem=mixed beam
8G\L	8dd\L
8g\ 8d\	8aa\
8G\	8gg\
8g\J 8d\	8b/J
=16	=16
8C\L	16dd\LL
.	16cc\JJ
8e\ 8c\	4cc\
8e\ 8c\	.
8e\J 8c\	8r
==	==
*-	*-
!!!system-decoration: [s1,s2]
!!!EED: Leszek Kubiak
!!!EEV: 2020-12-14
!!!ENC: Andrzej Kubiczek
!!!END: 2020-06-20
!!!YEC: Copyright 2022 Narodowy Instytut Fryderyka Chopina (https://polishscores.org)
!!!YEM: License CC-BY-4.0 (https://creativecommons.org/licenses/by/4.0)
